X:1
T:God’s Peace I’ll Know
T:God’s Peace I’ll Know
T:Ira Allan Sankey
T:Frances Jane (Fanny) Crosby, 1915
T:Public Domain Courtesy of the Cyber Hymnal™
T:Public Domain Courtesy of the Cyber Hymnal™
C:Ira Allan Sankey
Z:Public Domain
Z:Courtesy of the Cyber Hymnal™
%%score ( 1 2 ) ( 3 4 )
L:1/8
Q:1/4=100
M:4/4
K:Eb
V:1 treble 
V:2 treble 
V:3 bass 
V:4 bass 
V:1
 [EG] | [EG]2 [DG]2 [CG]3 [B,G] | (GF) (CG) [DF]3 [DF] | [DF]2 [CF]2 [DF]3 [CF] | %4
w: 1.~If|kneel- ing at the|gate * of * prayer, My|soul has laid its|
w: 2.~If|dear to me the|sac- * red * page, The|lamp of youth, the|
w: 3.~If|pa- tient faith my|heart * in- * spire And|kin- dle there de-|
w: 4.~If|pure in spir- it|I * be- * hold A|wealth whose joy has|
 (FE) (DF) [B,E]3 [EG] | [EG]2 [DG]2 [CG]3 [_D_G] | (F=E) (Fc) [DB]3 [DF] | %7
w: bur- * den * there; If|sealed with blood and|cleansed * from * sin I|
w: staff * of * age, If|on the rock I|stand * se- * cure, My|
w: vo- * tion’s * fire, If|trust- ing on from|day * to * day I|
w: ne’er * been * told, If|faith and work with|me * a- * bide, And|
 [EG][E=A][EB][Ec] [DB]2 [EA]2 | (B2 A2 F2 ^F2) ||"^Refrain" [EG]4 [FG]2 [FG]2 | [=EG]6 [EG]2 | %11
w: hear a voice that speaks with-|in… * * *|||
w: hope un- moved, my an- chor|sure… * * *|||
w: learn to wait, be- lieve, o-|bey… * * *|God’s peace I’ll|know, God’s|
w: I thro’ faith am jus- ti-|fied… * * *|||
 (^F2 G2 A2) [_EG]2 | (G4 F2) [EF]2 | [DF]4 [DF]4 | [DA][DA][DG][D^F] (F2 G)[EB] | %15
w: ||||
w: ||||
w: peace * * I’ll|know, * I’ll|praise His|name wher- e’er I go; * In|
w: ||||
 (c2 d)[Ec] [EB]3 E | ([EA]2 [FB])[DA] [EG]3 [EG] | (FGA)[EG] F3 [EF] | (FGA)[EG] [EF]4 | %19
w: ||||
w: ||||
w: storm * or calm, in|bliss * or woe, In|life * * or death, in|life * * or death|
w: ||||
 [EB]4 ([EG]2 [B,E]2) | ([EG]2 C2) [DF]3"^riten." E | [B,E]6 z |] %22
w: |||
w: |||
w: God’s peace, *|God’s * peace I’ll|know.|
w: |||
V:2
 x | x8 | C2 C2 x4 | x8 | B,2 B,2 x4 | x8 | D2 _E2 x4 | x8 | D8 || x8 | x8 | =E6 x2 | E6 x2 | x8 | %14
 x4 E3 x | E3 x2 E x2 | x8 | E3/2 x3/2 E3 x2 | E3 x5 | x8 | x2 C2 x E x2 | x7 |] %22
V:3
 [E,B,] | [E,B,]2 [E,B,]2 [E,B,]3 E, | [A,,A,]2 [A,,A,]2 [B,,A,]3 [B,,A,] | %3
 [B,,A,]2 [B,,A,]2 [B,,A,]3 [B,,A,] | [B,,G,]2 (F,A,) [E,G,]3 [E,B,] | %5
 [E,B,]2 [E,B,]2 [E,B,]3 [=E,B,] | [F,B,]2 [F,=A,]2 [B,,B,]3 [B,,B,] | %7
 [E,B,][E,B,][E,G,][E,G,] F,2 [F,C]2 | [B,,B,]8 || [E,B,]4 [D,__C]2 [D,C]2 | [C,B,]6 [C,B,]2 | %11
 (=A,2 B,2 C2) [C,B,]2 | [F,,=A,]6 [F,,A,]2 | [B,,B,]4 [B,,B,]4 | %14
 [B,,C][B,,C][B,,C][B,,=A,] (A,2 B,)[G,B,] | A,3 A, [G,B,]3 [G,B,] | %16
 [F,C]2 [D,B,][B,,B,] [E,B,]3 [E,B,] | C3 [G,C] [A,C]3 [A,_C] | _C3 [G,C] C4 | [B,,G,]4 (B,2 G,2) | %20
 [F,,=A,]4 [B,,_A,]3 [E,G,] | [E,G,]6 z |] %22
V:4
 x | x7 E, | x8 | x8 | x2 B,,2 x4 | x8 | x8 | x4 F,2 x2 | x8 || x8 | x8 | C,6 x2 | x8 | x8 | %14
 x4 E,3 x | A,3 A, x4 | x8 | (A,G,F,) x5 | (A,G,F,) (A,2 A,,2) x | x4 B,,4 | x8 | x7 |] %22

